X:1
T:Trust (Mendelssohn), 87.87
T:Trust (Mendelssohn), 87.87
T:Arranged from Felix Mendelssohn, 1840
T:Public Domain Courtesy of the Cyber Hymnal™
C:Arranged from Felix Mendelssohn, 1840
Z:Public Domain
Z:Courtesy of the Cyber Hymnal™
%%score ( 1 2 ) ( 3 4 )
L:1/8
Q:1/4=110
M:3/4
K:Bb
V:1 treble 
V:2 treble 
V:3 bass 
V:4 bass 
V:1
 [DF]2 F2 G2 [CF]2 | [B,B]2 (dc) [FB]2 [FA]2 | G2 [FA]2 [FB]2 [_Ed]2 | d2 c2 [FB]4 | %4
 F2 [DF]2 [EG]2 [EF]2 | B2 ([Bd][Ac]) [GB]2 [^FA]2 | [GB]2 ([FA][EG]) [DF]2 B2 | [Fd]2 c2 [DB]4 |] %8
V:2
 x2 F2 (ED) x2 | x2 G2 x4 | (F=E) x6 | (FB) (AG) x4 | F2 x6 | (D^F) x6 | x6 (FG) | x2 (FE) x4 |] %8
V:3
 [B,,B,]2 [D,B,]2 [E,B,]2 [E,A,]2 | (B,F) (FE) [F,D]2 [F,C]2 | [C,C]2 C2 [D,B,]2 [G,B,]2 | %3
 (B,D) (FE) [B,,D,D]4 | [B,D]2 (DC) [G,B,]2 [=A,C]2 | [B,D]2 ([B,,D][C,E]) [D,D]2 [D,D]2 | %6
 [G,,D]2 [A,,C]2 [B,,D]2 B,2 | [F,B,]2 [F,-A,]2 [B,,F,B,]4 |] %8
V:4
 x8 | D,2 E,2 x4 | x2 (F,E,) x4 | F,2 D,2- x4 | x2 _A,2 x4 | x8 | x6 (D,E,) | x8 |] %8

